X: 21072
Q: "Slow"
M: C
L: 1/8
K: C
!segno!|:"_P."G |\
c3e (ed)(fe) | (edcB) c3(G | A2)(c2 G2c2) | (d/c/B/c/) de d3G |\
"_mF"c3e edfe | edcB c3G | A/B/c/B/ d/c/B/A/ Gceg | fdAB c3 H|]
e |\
(dG)(^FA) G3e | ({e}dB/G/) ({d}cA/^F/) G3^d | eBc^G AEHF>"_PP"F | f3e d3c |\


